X:1
T:Magnificat primi toni - Lasso
T:#
%%score [ 1 2 3 4 ]
L:1/8
Q:1/4=130
M:none
K:C
V:1 treble nm="S" snm="S"
V:2 treble nm="A" snm="A"
V:3 treble-8 nm="T" snm="T"
V:4 treble nm="B" snm="B"
V:1
 z12 | z20 ||[K:Eb][K:treble][Q:1/4=180][Q:1/4=180][Q:1/4=180][Q:1/4=180] F8 (G8 | A12) G4 | %4
w: ||Et ex\-|* ul-|
 A8 G8 | c6 c2 c4 (e4- | e2 d2 c8 =B4) | c8 z4 c4 | e4 f4 z4 B4 | =A4 B4 B6 B2 | G8 A4 (G4- | %11
w: ta- vit|spi- ri- tus me\-||us in|De- o, in|De- o sa- lu-|ta- ri- me\-|
 G2 F2 F8 =E4) | F16 ||[Q:1/4=130][Q:1/4=130][Q:1/4=130][Q:1/4=130] z24 | z22 || %15
w: |o.|||
[Q:1/4=180][Q:1/4=180][Q:1/4=180][Q:1/4=180] A8 B4 c4 | c4 c6 c2 c4 | c4 e4 d4 (c4- | %18
w: Qui- a fe-|cit mi- hi ma-|gna, qui po- tens|
 c4 =B4) c4 G4 | A4 F4 F4 (G4- | G2 F2) (F8 =E4) | F16 || %22
w: * * est, et|san- ctum no- men|* * e\- *|ius.|
[Q:1/4=130][Q:1/4=130][Q:1/4=130][Q:1/4=130] z26 | z22 || %24
w: ||
[Q:1/4=180][Q:1/4=180][Q:1/4=180][Q:1/4=180] A8 A4 B4 | c4 B4 G4 G4 | B6 B2 A8 | G8 G4 z2 G2 | %28
w: Fe- cit po-|ten- ti- am in|bra- chi- o|su- o: di-|
 c4 c2 c2 B4 B4 | z2 B2 c4 c2 c2 =A4 | B4 B2 c2 B2 A2 G4 | A4 B2 A2 G2 F2 =E4 | F16 || %33
w: sper- sit su- per- bos,|di- sper- sit su- per-|bos men- te cor- dis su-|i, men- te cor- dis su-|i.|
[Q:1/4=130][Q:1/4=130][Q:1/4=130][Q:1/4=130] z22 | z20 || %35
w: ||
[Q:1/4=180][Q:1/4=180][Q:1/4=180][Q:1/4=180] A4 A2 A2 B4 c4 | z16 | e4 e2 e2 f4 e4- | %38
w: E- su- ri- en- tes||im- ple- vit bo- nis,|
 e2 e2 c2 c2 =B4 c4 | A4 A2 A2 G2 c2 c2 c2 | c2 B2 A4 G2 c2 =B4 | c4 z4 z2 f2 =e4 | %42
w: * im- ple- vit bo- nis:|et di- vi- tes, et di- vi-|tes di- mi- sit i- na-|nes, i- na-|
 f4 z4 z2 f2 =e4 | f16 ||[Q:1/4=130][Q:1/4=130][Q:1/4=130][Q:1/4=130] z26 | z22 || %46
w: nes, i- na-|nes.|||
[Q:1/4=180][Q:1/4=180][Q:1/4=180][Q:1/4=180] c8 B4 e4 | d2 c2 B2 e2 d2 c2 =B4 | %48
w: Si- cut lo-|cu- tus est ad pa- tres no-|
 c4 A2 A2 A2 A2 A2 A2 | A4 G4 F2 F2 F2 =E2 | F16 || %51
w: stros, A- bra- ham, et se- mi-|ni e- ius in sae- cu-|la.|
[Q:1/4=130][Q:1/4=130][Q:1/4=130][Q:1/4=130] z22 | z22 || %53
w: ||
[Q:1/4=180][Q:1/4=180][Q:1/4=180][Q:1/4=180] c8 B4 G4 | c4 c2 c2 c2 c2 c4 | c2 c2 c2 c2 c4 B4 | %56
w: Si- cut e-|rat in prin- ci- pi- o,|in prin- ci- pi- o, et|
 B2 A2 G4 G8 ||[M:6/2] x24 |[M:6/2][Q:1/4=360][Q:1/4=360][Q:1/4=360][Q:1/4=360] =A8 B4 c8 c4 | %59
w: nunc, et sem- per,||et in sae- cu-|
 =B12 c8 _B4 | =A8 B4 G8 _A4 |[Q:1/4=356] A8[Q:1/4=351] G4[Q:1/4=345] F8[Q:1/4=340] F4 | %62
w: la sae- cu-|lo- rum, A- men,|sae- cu- lo- rum|
[Q:1/4=335] =E8[Q:1/4=330] F4[Q:1/4=325] f8[Q:1/4=320] e4 | %63
w: A- men, sae- cu-|
[Q:1/4=315] _d8[Q:1/4=310] d4[Q:1/4=304] c12 |[Q:1/4=300] =A24 |] %65
w: lo- rum, A-|men.|
V:2
 z12 | z20 ||[K:Eb][K:treble] (C8 E8- | E4) E4 F4 (G4- | G2 F2 F6 ED E2 F2 | G8) A8 | G6 G2 G4 G4 | %7
w: ||Et *|* ex- ul- ta\-||* vit|spi- ri- tus me-|
 E8 z4 A4 | G4 F4 z4 D4 | C4 G4 G8 | E8 E8 | C8 C8 | =A,16 || z24 | z22 || F8 G4 A4 | A4 G4 A4 A4 | %17
w: us in|De- o, in|De- o sa-|lu- ta-|ri- me-|o.|||Qui- a fe-|cit mi- hi ma-|
 G4 G4 B4 A4 | G8 =E8 | F4 D4 C4 E4 | C16 | =A,16 || z26 | z22 || E8 F4 G4 | G4 G4 E6 C2 | %26
w: gna, qui po- tens|est, et|san- ctum no- men|e-|~ius.|||Fe- cit po-|ten- ti- am in|
 F4 G4 F8 | D8 E4 z2 C2 | A4 A2 A2 F4 G4 | z2 F2 A4 G2 G2 F4 | G4 G2 A2 G2 F2 =E4 | %31
w: bra- chi- o|su- o: di-|sper- sit su- per- bos,|di- sper- sit su- per-|bos men- te cor- dis su-|
 F4 G2 E2 E2 C2 C4 | =A,16 || z22 | z20 || A4 A2 A2 G4 A4 | z16 | G4 G2 G2 A4 A4 | G4 A2 F2 G4 G4 | %39
w: i, men- te cor- dis su-|i.|||E- su- ri- en- tes||im- ple- vit bo- nis,|im- ple- vit bo- nis:|
 F4 F2 F2 E2 G2 G2 G2 | A2 G2 F4 E2 E2 D4 | C4 z4 z2 A2 G4 | F4 z4 z2 C2 C4 | =A,16 || z26 | z22 || %46
w: et di- vi- tes, et di- vi-|tes di- mi- sit i- na-|nes, i- na-|nes, i- na-|nes.|||
 A8 G4 B4 | B2 G2 G2 G2 B2 A2 G4 | =E4 F2 F2 F2 F2 _E2 E2 | F4 E4 D2 C2 D2 C2 | =A,16 || z22 | %52
w: Si- cut lo-|cu- tus est ad pa- tres no-|stros, A- bra- ham, et se- mi-|ni e- ius in sae- cu-|la.||
 z22 || A8 F4 E4 | G4 G2 G2 G2 G2 G4 | A2 A2 A2 A2 A4 G4 | F2 F2 D4 =E8 ||[M:6/2] x24 | %58
w: |Si- cut e-|rat in prin- ci- pi- o,|in prin- ci- pi- o, et|nunc, et sem- per,||
[M:6/2] F8 G4 A8 A4 | G12 G8 G4 | F8 F4 =E8 F4 | _E8 E4 C8 _D4 | C8 C4 A8 G4 | F8 F4 =E12 | F24 |] %65
w: et in sae- cu-|la sae- cu-|lo- rum, A- men,|sae- cu- lo- rum|A- men, sae- cu-|lo- rum, A-|men.|
V:3
[K:Eb]"^Magnificat primi toni""^Orlando di Lasso\n(1530-94)" A2 B2 c2 c2 c4 | %1
w: Ma- gni\- * fi- cat|
w: |
 c4 B2 A2 B2 c2 B2 B2 A4 || A8 (B8 | c12) c4 | c8 c8 | e12 c4 | e8 d8 | c4 c4 e4 f4 | z4 d4 f4 g4 | %9
w: anima me- a Do\- * mi- num. *|Et ex\-|* ul-|ta- vit|spi- ri-|tus me-|us in De- o,|in De- o|
w: ||||||||
 z4 d4 (e6 dc | B4) c8 B4 | (A8 G8) | F16 || A2 B2 c2 c8 _d2 c2 B2 c4 | c8 B2 A2 B2 c2 B2 A4 || %15
w: sa- lu\- * *|* ta- ri-|me\- *|o.|Qui- a * ~respexit~humilitatem~an- cil- lae su- ae:|ecce~enim~ex~hoc~beatam * * * * * *|
w: |||||me~dicent~omnes~gene- ra- ti- o\- * nes. *|
 c8 e4 e4 | f4 e6 e2 f4 | e8 f8 | e4 d4 c4 c4 | c4 B4 A4 B4 | (A8 G8) | F16 || %22
w: Qui- a fe-|cit mi- hi ma-|gna, qui|po- tens est, et|san- ctum no- men|e\- *|ius.|
w: |||||||
 A2 B2 c2 c8 _d2 c2 B2 c2 c4 | c8 B2 A2 B2 c2 B2 A4 || c8 c4 e4 | e4 d4 c4 e4 | d4 e4 c4 (c4- | %27
w: Et mis\- * ericordia~eius~a~progenie in pro- ge- ni- es|timen- ti- bus e\- * um. *|Fe- cit po-|ten- ti- am in|bra- chi- o su\-|
w: |||||
 c2 =B=A B4) c2 c2 e4 | e2 e2 f4 d2 d2 e4 | d4 f4 e4 c4 | e6 e2 e2 c2 c4 | c4 e2 c2 B2 A2 G4 | %32
w: * * * * o: di- sper-|sit su- per- bos, di- sper-|sit su- per- bos|men- te cor- dis su-|i, men- te cor- dis su-|
w: |||||
 F16 || A2 B2 c2 c4 _d2 c2 c2 B2 c4 | c4 B2 A2 B2 c2 B2 B2 A4 || z16 | A4 A2 A2 B4 c4 | %37
w: i.|De- po\- * suit~po- ten- tes de se- de,|et~exal- ta- vit hu\- * mi- les. *||E- su- ri- en- tes|
w: |||||
 B4 B2 B2 _d4 c4 | B4 f2 c2 d4 e4 | c4 c2 c2 c2 e2 e2 e2 | e2 e2 c4 c4 z4 | z2 f2 =e4 f4 z4 | %42
w: im- ple- vit bo- nis,|im- ple- vit bo- nis:|et di- vi- tes, et di- vi-|tes di- mi- sit|i- na- nes,|
w: |||||
 z2 B2 =A4 B2 _A2 G4 | F16 || A2 B2 c2 c8 _d2 c2 c2 B2 c4 | c8 B2 A2 B2 c2 B2 A4 || e8 e4 g4 | %47
w: i- na- nes, i- na-|nes.|Su- sce\- * pit~Israel pu- e- rum su- um|recordatus~misericor- di- ae su\- * ae. *|Si- cut lo-|
w: |||||
 f2 e2 d2 c2 f2 f2 d4 | c4 c2 c2 _d2 d2 c2 c2 | _d4 B4 B2 =A2 B2 G2 | F16 || %51
w: cu- tus est ad pa- tres no-|stros, A- bra- ham, et se- mi-|ni e- ius in sae- cu-|la.|
w: ||||
 A2 B2 c2 c2 _d2 c2 c2 B2 c2 c4 | c8 B2 A2 B2 c2 B2 A4 || e8 d4 c4 | e4 e2 e2 e2 e2 e4 | %55
w: Glo- ri\- * a Pa- tri, et Fi- li- o,|et~Spiri- tu- i San- * cto: *|Si- cut e-|rat in prin- ci- pi- o,|
w: ||||
 e2 e2 e2 e2 e4 e4 | d2 c2 =B4 c8 ||[M:6/2] x24 |[M:6/2][K:treble-8] c8 e4 e8 f4 | d12 e8 e4 | %60
w: in prin- ci- pi- o, et|nunc, et sem- per,||et in sae- cu-|la sae- cu-|
w: |||||
 c8 _d4 c8 c4 | c8 B4 =A8 B4 | G8 A4 c8 c4 | A8 B4 G12 | F24 |] %65
w: lo- rum, A- men,|sae- cu- lo- rum|A- men, sae- cu-|lo- rum, A-|men.|
w: |||||
V:4
 z12 | z20 ||[K:Eb][K:bass] F,8 (E,8 | A,6 G,2 F,4) =E,4 | F,8 C,4 C4- | C4 C4 A,8 | C8 G,8 | %7
w: ||Et ex\-|* * * ul-|ta- vit spi\-|* ri- tus|me- us|
 z4 A,4 G,4 F,4 | z4 B,4 A,4 G,4 | z4 G,4 E,4 (E,4- | E,2 D,2 C,2 B,,2 A,,4) E,4 | %11
w: in De- o,|in De- o|sa- lu- ta\-|* * * * * ri-|
 (A,,6 B,,2 C,8) | F,16 || z24 | z22 || F,8 E,4 A,4 | F,4 C4 A,4 F,4 | C,4 C4 B,4 F,4 | G,8 C,8 | %19
w: me\- * *|o.|||Qui- a fe-|cit mi- hi ma-|gna, qui po- tens|est, et|
 F,4 B,,4 F,4 E,4 | (F,8 C,8) | F,16 || z26 | z22 || A,8 F,4 E,4 | C,4 G,4 C,4 C4 | B,4 E,4 F,8 | %27
w: san- ctum no- men|e\- *|ius.|||Fe- cit po-|ten- ti- am in|bra- chi- o|
 G,8 C,2 C,2 C4 | A,2 A,2 F,4 B,4 z2 E,2 | B,4 F,2 F,2 C4 F,4 | E,6 A,2 E,2 F,2 C,4 | %31
w: su- o: di- sper-|sit su- per- bos, di-|sper- sit su- per- bos|men- te cor- dis su-|
 F,4 E,2 A,2 E,2 F,2 C,4 | F,16 || z22 | z20 || z16 | A,4 F,2 A,2 G,4 A,4 | E,4 E,2 E,2 _D,4 A,,4 | %38
w: i, men- te cor- dis su-|i.||||E- su- ri- en- tes|im- ple- vit bo- nis,|
 E,4 F,2 A,2 G,4 C,4 | F,4 F,2 F,2 C,2 C2 C2 C2 | A,2 E,2 F,4 C,4 z4 | z2 A,2 G,4 F,4 z4 | %42
w: im- ple- vit bo- nis:|et di- vi- tes, et di- vi-|tes di- mi- sit|i- na- nes,|
 z2 _D,2 C,4 B,,2 F,2 C,4 | F,16 || z26 | z22 || A,8 E,4 E,4 | B,2 C2 G,2 C2 B,2 F,2 G,4 | %48
w: i- na- nes, i- na-|nes.|||Si- cut lo-|cu- tus est ad pa- tres no-|
 C,4 F,2 F,2 _D,2 D,2 A,2 A,2 | _D,4 E,4 B,,2 F,2 B,,2 C,2 | F,16 || z22 | z22 || A,8 B,4 C4 | %54
w: stros, A- bra- ham, et se- mi-|ni e- ius in sae- cu-|la.|||Si- cut e-|
 C4 C2 C2 C2 C2 C4 | A,2 A,2 A,2 A,2 A,4 E,4 | B,2 F,2 G,4 C,8 ||[M:6/2] x24 | %58
w: rat in prin- ci- pi- o,|in prin- ci- pi- o, et|nunc, et sem- per,||
[M:6/2] F,8 E,4 A,8 F,4 | G,12 C,8 E,4 | F,8 B,,4 C,8 F,4 | A,8 E,4 F,8 B,,4 | C,8 F,4 F,8 C,4 | %63
w: et in sae- cu-|la sae- cu-|lo- rum, A- men,|sae- cu- lo- rum|A- men, sae- cu-|
 _D,8 B,,4 C,12 | F,24 |] %65
w: lo- rum, A-|men.|

